assets/img/social-icons/instagram.svg

<svg width="40" height="41" viewBox="0 0 40 41" fill="none" xmlns="http://www.w3.org/2000/svg">
<rect y="0.0625" width="40" height="40" rx="20" fill="#C9CED5" fill-opacity="0.16"/>
<path d="M20 11.8697C22.6506 11.8697 23.0121 11.8697 24.0964 11.8697C25.0602 11.8697 25.5422 12.1107 25.9036 12.2312C26.3855 12.4721 26.747 12.5926 27.1084 12.9541C27.4699 13.3155 27.7108 13.677 27.8313 14.1589C27.9518 14.5203 28.0723 15.0023 28.1928 15.9661C28.1928 17.0505 28.1928 17.2914 28.1928 20.0625C28.1928 22.8336 28.1928 23.0746 28.1928 24.1589C28.1928 25.1227 27.9518 25.6047 27.8313 25.9661C27.5904 26.448 27.4699 26.8095 27.1084 27.1709C26.747 27.5324 26.3855 27.7733 25.9036 27.8938C25.5422 28.0143 25.0602 28.1348 24.0964 28.2553C23.0121 28.2553 22.7711 28.2553 20 28.2553C17.2289 28.2553 16.988 28.2553 15.9036 28.2553C14.9398 28.2553 14.4578 28.0143 14.0964 27.8938C13.6145 27.6529 13.253 27.5324 12.8916 27.1709C12.5301 26.8095 12.2892 26.448 12.1687 25.9661C12.0482 25.6047 11.9277 25.1227 11.8072 24.1589C11.8072 23.0746 11.8072 22.8336 11.8072 20.0625C11.8072 17.2914 11.8072 17.0505 11.8072 15.9661C11.8072 15.0023 12.0482 14.5203 12.1687 14.1589C12.4096 13.677 12.5301 13.3155 12.8916 12.9541C13.253 12.5926 13.6145 12.3517 14.0964 12.2312C14.4578 12.1107 14.9398 11.9902 15.9036 11.8697C16.988 11.8697 17.3494 11.8697 20 11.8697ZM20 10.0625C17.2289 10.0625 16.988 10.0625 15.9036 10.0625C14.8193 10.0625 14.0964 10.3035 13.494 10.5444C12.8916 10.7854 12.2892 11.1468 11.6867 11.7492C11.0843 12.3517 10.8434 12.8336 10.4819 13.5565C10.241 14.1589 10.1205 14.8818 10 15.9661C10 17.0505 10 17.4119 10 20.0625C10 22.8336 10 23.0746 10 24.1589C10 25.2432 10.241 25.9661 10.4819 26.5685C10.7229 27.1709 11.0843 27.7733 11.6867 28.3758C12.2892 28.9782 12.7711 29.2191 13.494 29.5806C14.0964 29.8215 14.8193 29.942 15.9036 30.0625C16.988 30.0625 17.3494 30.0625 20 30.0625C22.6506 30.0625 23.0121 30.0625 24.0964 30.0625C25.1807 30.0625 25.9036 29.8215 26.506 29.5806C27.1084 29.3396 27.7108 28.9782 28.3133 28.3758C28.9157 27.7733 29.1566 27.2914 29.5181 26.5685C29.759 25.9661 29.8795 25.2432 30 24.1589C30 23.0746 30 22.7131 30 20.0625C30 17.4119 30 17.0505 30 15.9661C30 14.8818 29.759 14.1589 29.5181 13.5565C29.2771 12.9541 28.9157 12.3517 28.3133 11.7492C27.7108 11.1468 27.2289 10.9059 26.506 10.5444C25.9036 10.3035 25.1807 10.183 24.0964 10.0625C23.0121 10.0625 22.7711 10.0625 20 10.0625Z" fill="white" fill-opacity="0.87"/>
<path d="M20 14.8818C17.1084 14.8818 14.8193 17.1709 14.8193 20.0625C14.8193 22.9541 17.1084 25.2432 20 25.2432C22.8916 25.2432 25.1807 22.9541 25.1807 20.0625C25.1807 17.1709 22.8916 14.8818 20 14.8818ZM20 23.436C18.1928 23.436 16.6265 21.9902 16.6265 20.0625C16.6265 18.2553 18.0723 16.689 20 16.689C21.8072 16.689 23.3735 18.1348 23.3735 20.0625C23.3735 21.8697 21.8072 23.436 20 23.436Z" fill="white" fill-opacity="0.87"/>
<path d="M25.3012 15.9661C25.9666 15.9661 26.506 15.4267 26.506 14.7613C26.506 14.0959 25.9666 13.5565 25.3012 13.5565C24.6358 13.5565 24.0964 14.0959 24.0964 14.7613C24.0964 15.4267 24.6358 15.9661 25.3012 15.9661Z" fill="white" fill-opacity="0.87"/>
</svg>

<svg width="40" height="41" fill="none" xmlns="http://www.w3.org/2000/svg"><rect y=".063" width="40" height="40" rx="20" fill="#C9CED5" fill-opacity=".16"/><path d="M20 11.87h4.096c.964 0 1.446.24 1.808.361.482.241.843.362 1.204.723.362.361.603.723.723 1.205.12.361.241.843.362 1.807V24.16c0 .964-.241 1.446-.362 1.807-.24.482-.361.843-.723 1.205-.361.361-.723.602-1.204.723-.362.12-.844.24-1.808.361h-8.192c-.964 0-1.446-.24-1.808-.361-.482-.241-.843-.362-1.204-.723-.362-.361-.603-.723-.723-1.205-.12-.361-.241-.843-.362-1.807V15.966c0-.964.241-1.446.362-1.807.24-.482.361-.844.723-1.205.361-.361.723-.602 1.204-.723.362-.12.844-.24 1.808-.361H20Zm0-1.807h-4.096c-1.085 0-1.808.24-2.41.481a5.263 5.263 0 0 0-1.807 1.205c-.603.603-.844 1.085-1.205 1.807-.241.603-.361 1.326-.482 2.41V24.16c0 1.084.241 1.807.482 2.41a5.263 5.263 0 0 0 1.205 1.807c.602.602 1.084.843 1.807 1.205.602.24 1.325.361 2.41.482h8.192c1.085 0 1.808-.241 2.41-.482a5.263 5.263 0 0 0 1.807-1.205c.603-.603.844-1.085 1.205-1.808.241-.602.361-1.325.482-2.41v-8.192c0-1.084-.241-1.807-.482-2.41a5.263 5.263 0 0 0-1.205-1.807c-.602-.602-1.084-.843-1.807-1.205-.602-.24-1.325-.361-2.41-.482H20Z" fill="#fff" fill-opacity=".87"/><path d="M20 14.882a5.142 5.142 0 0 0-5.18 5.18c0 2.892 2.288 5.181 5.18 5.181s5.18-2.289 5.18-5.18c0-2.892-2.288-5.181-5.18-5.181Zm0 8.554a3.368 3.368 0 0 1-3.373-3.373A3.368 3.368 0 0 1 20 16.689a3.368 3.368 0 0 1 3.373 3.373c0 1.808-1.566 3.374-3.373 3.374ZM25.301 15.966a1.205 1.205 0 1 0 0-2.41 1.205 1.205 0 0 0 0 2.41Z" fill="#fff" fill-opacity=".87"/></svg>
